.local/share/icons/Gruvbox-Plus-Dark/actions/16/labplot-shift-up-y.svg

<svg xmlns="http://www.w3.org/2000/svg" width="16" height="16" viewBox="0 0 16 16">
 <defs>
  <style id="current-color-scheme" type="text/css">
   .ColorScheme-Text { color:#ebdbb2; } .ColorScheme-Highlight { color:#458588; }
  </style>
 </defs>
 <path style="fill:currentColor" class="ColorScheme-Text" d="M 4 3 L 0 5 L 4 7 L 4 3 z M 12 3 L 12 7 L 16 5 L 12 3 z M 8 4 C 7.446 4 7 4.446 7 5 C 7 5.554 7.446 6 8 6 C 8.554 6 9 5.554 9 5 C 9 4.446 8.554 4 8 4 z M 6 9 L 8 13 L 10 9 L 6 9 z"/>
</svg>

<svg width="16" height="16" version="1.1" xmlns="http://www.w3.org/2000/svg">
  <defs>
    <style id="current-color-scheme" type="text/css">.ColorScheme-Text { color:#ebdbb2; } .ColorScheme-Highlight { color:#458588; }</style>
  </defs>
  <path class="ColorScheme-Text" d="m4 3-4 2 4 2v-4zm4 0a2 2 0 0 0-2 2 2 2 0 0 0 2 2 2 2 0 0 0 2-2 2 2 0 0 0-2-2zm4 0v4l4-2-4-2zm-6 6 2 4 2-4h-4z" fill="currentColor"/>
</svg>
